X:1
T:Gathering Home Within the Veil
T:Gathering Home Within the Veil
T:R. K. Moore
T:Phebe Spurlock, 1872
T:Public Domain Courtesy of the Cyber Hymnal™
C:R. K. Moore
Z:Public Domain
Z:Courtesy of the Cyber Hymnal™
%%score 1 2
L:1/8
Q:1/4=88
M:3/4
K:D
V:1 treble 
V:2 bass 
V:1
 D2 | D>[DE] D3 [DF] | [FA]>[GB] [FA]3 [DF] | [FA]>[GB] [FA]3 [DF] | ([DF]2 [CE]) z [FA]2 | %5
w: 1.~Time,|like a stream, is|glid- ing by; We’re|on its shore to-|day; * A|
w: 2.~Thus|one by one our|friends have passed; Through|pearl- y gates they|glide, * Where|
w: 3.~This|land of rest is|hid from view, Though|gen- tle airs, so|calm, * Oft|
w: 4.~We’re|ga- thering home with-|in the veil, Its|heav’n- ly joys to|share, * What|
 [Fd]>[Fd] [Fd]3 [GB] | [FA]>[DF] [FA]3 [DB] | [DA]3 [CE] [CF]>[CE] | D4 || %9
w: mo- ment more and|we may pass From|mor- tal sight a-|way.|
w: ga- thering hosts of|loved ones meet Far|o’er the ri- ver|tide.|
w: steal- ing from that|view- less shore, Bring|us their breath of|balm.|
w: glor- ious greet- ings|will be ours, To|meet our loved ones|there.|
[M:2/4]"^Refrain" [FA]2 | [DF]>[DE] D>[FA] | [DF]>[DE] D[FA] | [GB][Bd] [Ac][GB] | [FA]3 [FA] | %14
w: |||||
w: We’re|ga- ther- ing, we’re|ga- ther- ing, On|life’s ce- les- tial|shore; We|
w: |||||
w: |||||
 [Fd][FA] [FA][FA] | [GB][Gd] !fermata![Gd]>[DB] | [DA]>[DF] [CA]>[CE] | D2 |] %18
w: ||||
w: soon shall meet be-|yond the stream, Shall|meet to part no|more.|
w: ||||
w: ||||
V:2
 [D,F,]2 | [D,F,]>[D,G,] [D,F,]3 [D,A,] | [D,D]>[D,D] [D,D]3 [D,A,] | [D,D]>[D,D] [D,D]3 [D,A,] | %4
 [A,,A,]2 z2 [D,A,]2 | [D,A,]>[D,A,] [D,A,]3 [D,D] | [D,D]>[D,A,] [D,A,]3 [G,,G,] | %7
 [A,,G,]3 [A,,G,] [A,,A,]>[A,,G,] | [D,F,]4 ||[M:2/4] [D,D]2 | [D,A,]>[D,G,] [D,F,]>[D,D] | %11
 [D,A,]>[D,G,] [D,F,][D,D] | [G,D][G,D] [G,D][G,D] | [D,D]3 [D,D] | [D,A,][D,D] [D,D][D,D] | %15
 [G,D][G,B,] !fermata![G,B,]>[G,,G,] | [A,,F,]>[A,,A,] [A,,E,]>[A,,G,] | [D,F,]2 |] %18

